!!!OTL@@DE: Ich und mein Fl&auml;schchen
!!!ONB: volksweise
!!!OMD: Nicht zu schnell
!!!LYR: Langbein, August
!!!LDT: 1810
!!!OCL: Erk, Ludwig
!!!GCO: Deutscher Liederschatz, Band 1
**kern	**kern	**kern
*staff3	*staff2	*staff1
*Ipiano	*Ipiano	*Ivox
*>[A,A,B]	*>[A,A,B]	*>[A,A,B]
*>norep[A,B]	*>norep[A,B]	*>norep[A,B]
*>A	*>A	*>A
=1-	=1-	=1-
*clefF4	*clefG2	*clefG2
*k[b-e-a-]	*k[b-e-a-]	*k[b-e-a-]
*E-:	*E-:	*E-:
*M6/8	*M6/8	*M6/8
*MM96	*MM96	*MM96
8EE-/L	8e-/ 8g/L	8g/
8BB-/	8e-/ 8g/	8g/
8E-/J	8e-/ 8g/J	8g/
8EE-/L	8e-/ 8g/L	8g/
8BB-/	8e-/ 8g/	8g/
8E-/J	8e-/ 8g/J	8g/
=2	=2	=2
8EE-/L	8e-/ 8g/L	8g/
8BB-/	8d/ 8f/	8f/
8E-/J	8e-/ 8g/J	8g/
*	*^	*
8BBB-/L	4g/ 4b-/	4.d\	4b-/
8BB-/	.	.	.
8BB-/J	8f/ 8a-/	.	8a-/
*	*v	*v	*
=3	=3	=3
8BBB-/L	8d/ 8f/L	8f/
8BB-/	8d/ 8f/	8f/
8BB-/J	8d/ 8f/J	8f/
8BB-/L	8d/ 8f/L	8f/
8BB-/	8d/ 8f/	8f/
8BB-/J	8d/ 8f/J	8f/
=4	=4	=4
8BBB-/L	8d/ 8f/L	8f/
8BB-/	8c/ 8e-/	8e-/
8BB-/J	8d/ 8f/J	8f/
*^	*	*
8EE-/L	4EE-\	4e-/ 4g/	4g/
8BB-/	.	.	.
8E-/J	8r	8r	8r
*v	*v	*	*
=5:|!	=5:|!	=5:|!
*>B	*>B	*>B
8E-\ 8B-\L	8e-/ 8g/L	8g/
8E-\ 8B-\	8e-/ 8g/	8g/
8F\ 8B-\J	8e-/ 8a-/J	8a-/
4G\ 4B-\	4e-/ 4b-/	4b-/
8E-\ 8B-\	8e-/ 8g/	8g/
=6	=6	=6
4F\ 4B-\	4d/ 4a-/	4a-/
8BB-\ 8B-\	8d/ 8f/	8f/
8E-\ 8B-\L	8e-/ 8g/L	8g/
8B-\	8g/ 8b-/	8b-\
8e-\J	8g/ 8ee-/J	8ee-\
=7	=7	=7
8E-\ 8B-\L	8e-/ 8g/L	8g/
8E-\ 8B-\	8e-/ 8g/	8g/
8F\ 8B-\J	8e-/ 8a-/J	8a-/
4G\ 4B-\	4e-/ 4b-/	4b-\
8E-\ 8B-\	8e-/ 8g/	8g/
=8	=8	=8
4F\ 4B-\	4d/ 4a-/	4a-/
8BB-\ 8B-\	8d/ 8f/	8f/
4E-\ 4B-\	4e-/ 4g/	4g/
8r	8r	8r
=9	=9	=9
*M3/4	*M3/4	*M3/4
*MM60	*MM60	*MM60
4BB-/	4d/ 4f/	4f/
*	*^	*
4F\ 4B-\	4.f/	4d\	4.f/
4F\ 4B-\	.	4d\	.
.	8b-/	.	8b-/
=10	=10	=10	=10
4FF/	(8b-/L	4r	(8b-/L
.	8an/J	.	8an/J)
4F\ 4c\	2a/)	4e-\	2a/
4F\ 4c\	.	4e-\	.
=11	=11	=11	=11
4FF/	2ee-/	4r	2ee-\
4F\ 4An\ 4c\	.	4e-\	.
4F\	8an/L	4c\ 4e-\	8an/
.	8a/J	.	8a/
=12	=12	=12	=12
4BB-\ 4F\	(8cc/L	8e-\L	(8cc\L
.	8b-/J	8d\J	8b-\J)
2BB-\ 2F\ 2B-\	(4.b-/)	2d\	(4.b-\
.	8a-/)	.	8a-/)
*	*v	*v	*
=13	=13	=13
*M6/8	*M6/8	*M6/8
*MM96	*MM96	*MM96
8EE-/L	8e-/ 8g/L	8g/
8BB-/	8e-/ 8g/	8g/
8E-/J	8f/ 8a-/J	8a-/
8EE-/L	8g/ 8b-/L	8b-/
8BB-/	8g/ 8b-/	8b-/
8E-/J	8e-/ 8g/J	8g/
=14	=14	=14
8BB-\L	8f/ 8a-/L	8a-/
8B-\	8e-/ 8g/	8g/
8BB-\J	8d/ 8f/J	8f/
8E-\L	8e-/ 8g/L	8g/
8B-\	8g/ 8b-/	8b-\
8e-\J	8g/ 8ee-/J	8ee-\
=15	=15	=15
8EE-/L	8e-/ 8g/L	8g/
8BB-/	8e-/ 8g/	8g/
8E-/J	8f/ 8a-/J	8a-/
8EE-/L	8g/ 8b-/L	8b-/
8BB-/	8g/ 8b-/	8b-/
8E-/J	8e-/ 8g/J	8g/
=16	=16	=16
*^	*	*
8BB-/L	4BB-\	8f/ 8a-/L	8a-/
8B-/J	.	8e-/ 8g/	8g/
*v	*v	*	*
8BB-/	8A-/ 8d/ 8f/J	8f/
4EE-/ 4E-/	4G/ 4B-/ 4e-/	4e-/
8r	8r	8r
==	==	==
*-	*-	*-
!!!ENC: Craig Stuart Sapp
!!!END: 2004/06/28/
!!!EFL: 189/651
